storage/app/icons/phosphoricons/bold/vault-bold.svg

<svg xmlns="http://www.w3.org/2000/svg" fill="currentColor" viewBox="0 0 256 256"><path d="M216 36H40a20 20 0 0 0-20 20v136a20 20 0 0 0 20 20h12v12a12 12 0 0 0 24 0v-12h104v12a12 12 0 0 0 24 0v-12h12a20 20 0 0 0 20-20V56a20 20 0 0 0-20-20M44 188V60h168v52h-21.68a44 44 0 1 0 0 24H212v52Zm124-64a20 20 0 1 1-20-20 20 20 0 0 1 20 20"/></svg>

<svg xmlns="http://www.w3.org/2000/svg" viewBox="0 0 256 256" fill="currentColor"><path d="M216,36H40A20,20,0,0,0,20,56V192a20,20,0,0,0,20,20H52v12a12,12,0,0,0,24,0V212H180v12a12,12,0,0,0,24,0V212h12a20,20,0,0,0,20-20V56A20,20,0,0,0,216,36ZM44,188V60H212v52H190.32a44,44,0,1,0,0,24H212v52Zm124-64a20,20,0,1,1-20-20A20,20,0,0,1,168,124Z"/></svg>
